X:1
T:Wolfahrt Op.45 No. 41
T:Wohlfahrt. Op.45 No. 41
T:60 Etudes Book 2
T:Franz Wohlfahrt
T:1884
T:1884
C:Franz Wohlfahrt
Z:1884
L:1/8
M:4/4
K:D
V:1 treble nm="Violin" snm="Vln."
V:1
 (a2 |:"^Allegro moderato" bafd AFD)(A, | DFAd f!1!ad')(a | ba!4!ge !2!cAG)(A, | CEGA cea)(a | %5
 bage cAG)(A, | CEGB Ace)(g | bafd AFD)(A, | DFAd f!1!ad')(=c' | bf^d!1!B AF!4!^D)(A, | %10
 G,B,EG Beg)(!2!b | ad'af d!0!AF)(D | CEGB Agf)(e | fbaf dAF)(D | A,CEA cea)(a | bafd AFD)(A, | %16
 DFAd f!1!ad')(a | bafd !0!AFD)(A, | DFAd f!1!ad')(a | ba!4!ge !2!cAG)(A, | CEGA cea)(a | %21
 bage cAG)(A, | CEGB Ace)(g | bafd AFD)(A, | DFAd f!1!ad')(c' | bgd!1!B GDB,)(G, | %26
 B,DGB dg!2!b)(c' | d'afd !0!AFD)(A, | CEGB Ac!3!f)(e | dbaf d!4!BA)(F | DFAf baf)(d | %31
 ce!1!ab c'ba)(!0!e | !4!d'b!2!^ge dB^G)(E | CEAB cBA)(f | edB^G EDC)(B, | A,CEA cBA)(A, | %36
 DFA!1!d fed)(f | ec'a!0!e !3!dB^G)(E | cAEC A,) z z (!0!e | !4!d'b^ge dB^G)(E | CEAB cBA)(!0!e | %41
 !4!d'b^ge dB^G)(E | CEAB cBA)(E | CEAB cBA)(A, | DFA!1!d fed)(f | ec'a!0!e dB^G)(E | CEAB cBA)(a | %47
 bafd AFD)(A, | DFAd f!1!ad')(c' | bafd !0!AFD)(A, | DFAd f!1!ad')(a | ba!4!ge cAG)(A, | %52
 CEGA cea)(a | bage cAG)(A, | CEGB Ace)(g | bafd AFD)(A, | DFAd f!1!ad')(!1!d | bgd!1!B GDB,)(G, | %58
 B,D=F^G Bd=f)(^g | bagd AFD)(A, | CEGB Ac!3!f)(e | dd'af d!1!BA)(F | D!1!dfa d') z (a2 :| %63
 (D)!1!dfa d') z z2 |] %64

